public/img/clients/yellowpages.svg

<svg width="200" height="100" viewBox="0 0 200 100" fill="none" xmlns="http://www.w3.org/2000/svg">
<path fill-rule="evenodd" clip-rule="evenodd" d="M132.922 5.1499H68.078C63.771 5.1499 60.248 8.6899 60.248 13.0199V86.9799C60.248 91.3099 63.771 94.8499 68.078 94.8499H132.922C137.229 94.8499 140.752 91.3099 140.752 86.9799V13.0199C140.752 8.6899 137.229 5.1499 132.922 5.1499ZM134.332 88.7119H66.668L66.798 82.2599C66.798 82.2599 72.592 87.2169 81.076 81.9459C81.076 81.9459 95.329 70.6159 97.366 85.2499H103.63C105.666 70.6149 119.92 81.9459 119.92 81.9459C128.403 87.2159 134.33 82.2599 134.33 82.2599V88.7119H134.332ZM134.332 73.6839C131.355 83.2569 118.982 74.2339 118.982 74.2339C106.765 66.5239 100.662 76.1239 100.662 76.1239C100.662 76.1239 94.558 66.5239 82.342 74.2339C82.342 74.2339 69.672 82.9939 66.802 73.3689V15.0629C66.802 13.3329 68.235 11.9159 69.958 11.9159H131.198C132.922 11.9159 134.331 13.3319 134.331 15.0629V73.6829L134.332 73.6839Z" fill="black"/>
<path fill-rule="evenodd" clip-rule="evenodd" d="M79.512 13.8059L82.122 17.5819C82.122 17.5819 80.242 23.7719 81.914 27.4439L85.151 33.6339L77.738 46.9579C77.738 46.9579 83.168 48.4259 87.031 44.9639L95.489 36.9909C95.489 36.9909 96.449 36.3009 96.846 37.0969L116.686 68.9899C116.686 68.9899 119.086 73.8149 123.056 73.1849L125.352 72.5549L98.414 13.8049H79.514L79.512 13.8059Z" fill="black"/>
<path fill-rule="evenodd" clip-rule="evenodd" d="M82.645 64.4779C82.645 64.4779 80.555 68.0449 83.167 70.0379C83.167 70.0379 86.299 72.0309 88.91 67.4149L100.918 48.3209L95.384 39.7209L82.644 64.4789L82.645 64.4779Z" fill="black"/>
</svg>

<svg xmlns="http://www.w3.org/2000/svg" focusable="false" role="img" viewBox="0 0 200 100" fill="currentColor">
  <path fill-rule="evenodd" d="M132.922 5.15H68.078c-4.307 0-7.83 3.54-7.83 7.87v73.96c0 4.33 3.523 7.87 7.83 7.87h64.844c4.307 0 7.83-3.54 7.83-7.87V13.02c0-4.33-3.523-7.87-7.83-7.87zm1.41 83.562H66.668l.13-6.452s5.794 4.957 14.278-.314c0 0 14.253-11.33 16.29 3.304h6.264c2.036-14.635 16.29-3.304 16.29-3.304 8.483 5.27 14.41.314 14.41.314v6.452h.002zm0-15.028c-2.977 9.573-15.35.55-15.35.55-12.217-7.71-18.32 1.89-18.32 1.89s-6.104-9.6-18.32-1.89c0 0-12.67 8.76-15.54-.865V15.063c0-1.73 1.433-3.147 3.156-3.147h61.24c1.724 0 3.133 1.416 3.133 3.147v58.62l.001.001z" clip-rule="evenodd"/>
  <path fill-rule="evenodd" d="M79.512 13.806l2.61 3.776s-1.88 6.19-.208 9.862l3.237 6.19-7.413 13.324s5.43 1.468 9.293-1.994l8.458-7.973s.96-.69 1.357.106l19.84 31.893s2.4 4.825 6.37 4.195l2.296-.63-26.938-58.75h-18.9l-.002.001z" clip-rule="evenodd"/>
  <path fill-rule="evenodd" d="M82.645 64.478s-2.09 3.567.522 5.56c0 0 3.132 1.993 5.743-2.623l12.008-19.094-5.534-8.6-12.74 24.758.001-.001z" clip-rule="evenodd"/>
</svg>
